!!!OTL: Hinter Metz, bei Paris in Chalons (3-37), S. 97
!!!id: K1171
**kern
*clefG2
*k[]
*C:
{8c
8e
=1
4g
4g
4g
4a
=2
4.g
8f
4e}
=3
{8c
8e
=4
4g
4g
4g
4a
=5
4.g
8f
4e}
=6
{8.a
16g
=7
4g
8.f
16f
4f
8.g
16f
=8
4e}
2r
=9
{8c
8c
=10
8a
8a
8a
8a
8.cc
16cc}
=11
{8b
8a
=12
8.a
16g
8g
8g
4cc}
=13
{8.cc
16cc
=14
4dd
8.dd
16dd
4b
8a
16r
16b
=15
2cc}
4r
==
*-
!!!minrhy: 16
!!!meters: 4/4 ]  ZZ[6
!!!cut: Hinter Metz, bei Paris in Chalons (3-37), S. 97
!!!reg: Luxemburg
!!!trd: KINTZELE, Guillaume: An der Ucht, Bd. 3 Luxemburg 1928
!!!rhy1: X_X_  X__X__X__X__  X__.X_X__   (x2)
!!!rhy2: X_X_  X__X__X__X__  X__.X_X__
!!!key: K1171  16  C 4/4 ]  ZZ[6
!!!mod: HEPTATONIK IONISCH]  AMBITUS[9
!!!kad: 333+1+1+1
!!!akz: 5553_5553_543_6+1_6+1_+27+1_
!!!fot: 'a__a__b__c__d__e__
!!!for: 'a__a__b__c__d__bv_
!!!fok: '^a_^a_\__/__Va_V__
!! PHRAS[AUFTAKTIG]
!!!fkt: Scherzlied, Verf&uuml;hrung
!!!bem: in der Quelle mit einer 2. Stimme versehen
!! KINTZELE
!! PR[36] 2K[0] 2G[0] 3K[7] 3G[11] 4A[0] 4Ü[0] 5A[0] 6K[0] 6G[0]
!! 7K[0] 7G[0] 8A[4] MEHR[0] SI[21] ABS[28] SR[0] SP[21]
!! ST[8] 2k[0] 2g[14] 3k[14] 3g[11] 4d[4] 4ü[0] 5d[0] 6k[0] 6g[0]
!! 7k[0] 7g[0] 8d[0] mehr[0] si[43] dm[-22] sr[14] sp[29]
!! 1F[21] 2F[59] 3F[21] 4F[0] LF[0] 2P[0] 3P[0] 4P[0] TRI[0] DF[3] AB[29]
!! TF[0] U3K[0] U3[0] U4[0] U4Ü[0] U5[3] U6K[0] U6[0] U7K[0] U7[0]
!! N1[45] N2K[0] N2[7] N3K[0] N3[17] N4[7] N4Ü[0] N5[21] N6K[0] N6[0]
!!!n7k: 0] N7[0] O1[0] O2K[0] O2[0] O3K[0] O3[0] HÖ[0
!!!RNB: symbol: &uuml;  = u umlaut (UTF-8: Ã¼)
